X: 1731
T: Spellan the Fiddler   #3
R: hornpipe, reel
%S: s:4 b:14(6+4+4)
B: O'Neill's 1850 #1731
O: J.O'Neill
Z: Bob Safranek, rjs@gsp.org
Z: A.LEE WORMAN
M: C|
L: 1/8
N: Compacted by using labels and play order [JC]
P: Play (A2A2)x2+(BA2)x2
K: G
"^A"[|] (3(DEF) |: G>DB>G d>Bg>d | b>g (3ded c>BA>G |[1,3 .F(d^cd) .A(dcd) | d>ce>d c>AF>D :|[2,4 f>ec>A e>dB>G | (3FGA (3DEF G2 |]
"^B"[| g2 | b>gd>B G>Bd>g | a>fc>A F>Ac>f | a>gb>a c'>ba>g | f>ed>c B>AG>F |]
